X: 16607
T: Handsome Sally
R: reel
M: 4/4
K: Edorian
E2BE GEBE|E2BE FAAF|E2BE GEBE|1 BdAG FDDF:|2 BdAG FDDe||
fedc d3e|fede fgag|fedc d3A|1 BdAG FDDe:|2 BdAG FDDF||

